X:1
T:Title
%%score { 1 | 2 } 3
L:1/8
Q:1/4=100
M:4/4
K:D
V:1 treble nm="Bright Piano"
V:2 treble 
V:3 bass nm="Bright Piano"
V:1
 z2[Q:1/4=112] D2 E2 D2 | d3 c B4 | z2 d2 c2 B2 | B3 A A4 | z2 A2 c2 B2 | A3 G E4 | z2 G2 F2 =F2 | %7
 F8 | z2 D2 E2 D2 | d3 c B4 | z2 d2 c2 B2 | B3 A A4 | z2 A2 c2 B2 | A3 G E4 | z2 G2 F2 E2 | D8 |] %16
V:2
 z2 A,2 =C2 C2 | B,3 C D4 | z2 G2 E2 E2 | F3 F F4 | z2 D2 D2 ^D2 | F3 E D4 | z2 C2 C2 C2 | D8 | %8
 z2 A,2 =C2 C2 | B,3 C D4 | z2 G2 E2 E2 | F3 F F4 | z2 D2 D2 ^D2 | F3 E D4 | z2 C2 D2 C2 | A,8 |] %16
V:3
 z2 [D,F,]2 [D,G,]2 [D,F,]2 | G,3 [G,A,] [G,B,]4 | z2 [G,B,]2 [G,C]2 [G,D]2 | [D,D]3 [D,D] [D,D]4 | %4
 z2 [F,A,]2 [F,A,]2 [F,A,]2 | [E,B,]3 [E,B,] [E,G,]4 | z2 [A,,E,]2 [A,,F,]2 [A,,G,]2 | [D,A,]8 | %8
 z2 [D,F,]2 [D,G,]2 [D,F,]2 | G,3 [G,A,] [G,B,]4 | z2 [G,B,]2 [G,C]2 [G,D]2 | [D,D]3 [D,D] [D,D]4 | %12
 z2 [F,A,]2 [F,A,]2 [F,A,]2 | [E,B,]3 [E,B,] [E,G,]4 | z2 [A,,E,]2 [A,,F,]2 [A,,G,]2 | [D,F,]8 |] %16

